svg/blobs-icons/no-decorations/floor-scrub-brush.svg

<svg xmlns="http://www.w3.org/2000/svg" xmlns:xlink="http://www.w3.org/1999/xlink" preserveAspectRatio="xMidYMid" width="217" height="124" viewBox="0 0 217 124"><defs><style>.cls-3{fill:#ff3a2f}.cls-4{fill:#000;opacity:.35}.cls-5{fill:#142a3b}.cls-11{fill:#2476ff}.cls-13{fill:#fff}</style></defs><g id="group-4svg"><path d="M203.462 123.823s-154.953.0-154.953.0.0-61.017.0-61.017 154.953.0 154.953.0.0 61.017.0 61.017z" id="path-1" class="cls-3" fill-rule="evenodd"/><path d="M203.462 84.986S48.509 72.07 48.509 72.07s0-9.264.0-9.264 154.953.0 154.953.0.0 22.18.0 22.18z" id="path-2" class="cls-4" fill-rule="evenodd"/><path d="M206.753 42.551s-137.08.0-137.08.0C69.674 42.51 69.685 42.473 69.685 42.431V36.473c0-13.424 10.883-24.306 24.307-24.306h56.426C153.774 12.167 156.495 9.446 156.495 6.09c0-3.355-2.721-6.076-6.077-6.076H82.984c-15.102.0-27.345 12.242-27.345 27.344V42.431C55.639 42.473 55.651 42.51 55.651 42.551H45.218c-5.594.0-10.128 4.534-10.128 10.127.0 5.594 4.534 10.129 10.128 10.129H206.753C212.346 62.807 216.881 58.272 216.881 52.678c0-5.593-4.535-10.127-10.128-10.127z" id="path-3" class="cls-5" fill-rule="evenodd"/><path d="M179.225 122.813C177.229 122.813 175.61 121.194 175.61 119.198V90.585C175.61 88.589 177.229 86.97 179.225 86.97c1.99600000000001.0 3.614 1.619 3.614 3.615v28.613C182.839 121.194 181.221 122.813 179.225 122.813z" id="path-4" class="cls-5" fill-rule="evenodd"/><path d="M157.449 122.813C155.453 122.813 153.834 121.194 153.834 119.198V90.585C153.834 88.589 155.453 86.97 157.449 86.97 159.445 86.97 161.064 88.589 161.064 90.585v28.613C161.064 121.194 159.445 122.813 157.449 122.813z" id="path-5" class="cls-5" fill-rule="evenodd"/><path d="M100.98 122.813C98.984 122.813 97.366 121.194 97.366 119.198V90.585c0-1.996 1.618-3.615 3.614-3.615 1.996.0 3.615 1.619 3.615 3.615v28.613C104.595 121.194 102.976 122.813 100.98 122.813z" id="path-6" class="cls-5" fill-rule="evenodd"/><path d="M129.214 122.813C127.218 122.813 125.6 121.194 125.6 119.198V90.585C125.6 88.589 127.218 86.97 129.214 86.97 131.21 86.97 132.828 88.589 132.828 90.585v28.613C132.828 121.194 131.21 122.813 129.214 122.813z" id="path-7" class="cls-5" fill-rule="evenodd"/><path d="M72.747 122.813c-1.996.0-3.615-1.619-3.615-3.61500000000001V90.585c0-1.996 1.619-3.615 3.615-3.615s3.614 1.619 3.614 3.615v28.613C76.361 121.194 74.743 122.813 72.747 122.813z" id="path-8" class="cls-5" fill-rule="evenodd"/><path d="M31.588 94.529c0 7.05-5.714 12.764-12.765 12.764C11.774 107.293 6.059 101.579 6.059 94.529c0-7.051 5.715-12.766 12.764-12.766C25.874 81.763 31.588 87.478 31.588 94.529z" id="path-9" class="cls-11" fill-rule="evenodd"/><path d="M12.112 63.777C12.112 67.119 9.402 69.829 6.059 69.829 2.717 69.829.007 67.119.007 63.777s2.71-6.053 6.052-6.053C9.402 57.724 12.112 60.435 12.112 63.777z" id="path-10" class="cls-11" fill-rule="evenodd"/><path d="M22.043 89.647c0 2.69-2.18 4.869-4.869 4.869s-4.869-2.179-4.869-4.869C12.305 86.958 14.485 84.778 17.174 84.778S22.043 86.958 22.043 89.647z" id="path-11" class="cls-13" fill-rule="evenodd"/></g></svg>

<svg xmlns="http://www.w3.org/2000/svg" xmlns:xlink="http://www.w3.org/1999/xlink" preserveAspectRatio="xMidYMid" width="217" height="124" viewBox="0 0 217 124">
  <defs>
    <style>

      .cls-3 {
        fill: #ff3a2f;
      }

      .cls-4 {
        fill: #000000;
        opacity: 0.35;
      }

      .cls-5 {
        fill: #142a3b;
      }

      .cls-11 {
        fill: #2476ff;
      }

      .cls-13 {
        fill: #ffffff;
      }
    </style>
  </defs>
  <g id="group-4svg">
    <path d="M203.462,123.823 C203.462,123.823 48.509,123.823 48.509,123.823 C48.509,123.823 48.509,62.806 48.509,62.806 C48.509,62.806 203.462,62.806 203.462,62.806 C203.462,62.806 203.462,123.823 203.462,123.823 Z" id="path-1" class="cls-3" fill-rule="evenodd"/>
    <path d="M203.462,84.986 C203.462,84.986 48.509,72.070 48.509,72.070 C48.509,72.070 48.509,62.806 48.509,62.806 C48.509,62.806 203.462,62.806 203.462,62.806 C203.462,62.806 203.462,84.986 203.462,84.986 Z" id="path-2" class="cls-4" fill-rule="evenodd"/>
    <path d="M206.753,42.551 C206.753,42.551 69.673,42.551 69.673,42.551 C69.674,42.510 69.685,42.473 69.685,42.431 C69.685,42.431 69.685,36.473 69.685,36.473 C69.685,23.049 80.568,12.167 93.992,12.167 C93.992,12.167 150.418,12.167 150.418,12.167 C153.774,12.167 156.495,9.446 156.495,6.090 C156.495,2.735 153.774,0.014 150.418,0.014 C150.418,0.014 82.984,0.014 82.984,0.014 C67.882,0.014 55.639,12.256 55.639,27.358 C55.639,27.358 55.639,42.431 55.639,42.431 C55.639,42.473 55.651,42.510 55.651,42.551 C55.651,42.551 45.218,42.551 45.218,42.551 C39.624,42.551 35.090,47.085 35.090,52.678 C35.090,58.272 39.624,62.807 45.218,62.807 C45.218,62.807 206.753,62.807 206.753,62.807 C212.346,62.807 216.881,58.272 216.881,52.678 C216.881,47.085 212.346,42.551 206.753,42.551 Z" id="path-3" class="cls-5" fill-rule="evenodd"/>
    <path d="M179.225,122.813 C177.229,122.813 175.610,121.194 175.610,119.198 C175.610,119.198 175.610,90.585 175.610,90.585 C175.610,88.589 177.229,86.970 179.225,86.970 C181.221,86.970 182.839,88.589 182.839,90.585 C182.839,90.585 182.839,119.198 182.839,119.198 C182.839,121.194 181.221,122.813 179.225,122.813 Z" id="path-4" class="cls-5" fill-rule="evenodd"/>
    <path d="M157.449,122.813 C155.453,122.813 153.834,121.194 153.834,119.198 C153.834,119.198 153.834,90.585 153.834,90.585 C153.834,88.589 155.453,86.970 157.449,86.970 C159.445,86.970 161.064,88.589 161.064,90.585 C161.064,90.585 161.064,119.198 161.064,119.198 C161.064,121.194 159.445,122.813 157.449,122.813 Z" id="path-5" class="cls-5" fill-rule="evenodd"/>
    <path d="M100.980,122.813 C98.984,122.813 97.366,121.194 97.366,119.198 C97.366,119.198 97.366,90.585 97.366,90.585 C97.366,88.589 98.984,86.970 100.980,86.970 C102.976,86.970 104.595,88.589 104.595,90.585 C104.595,90.585 104.595,119.198 104.595,119.198 C104.595,121.194 102.976,122.813 100.980,122.813 Z" id="path-6" class="cls-5" fill-rule="evenodd"/>
    <path d="M129.214,122.813 C127.218,122.813 125.600,121.194 125.600,119.198 C125.600,119.198 125.600,90.585 125.600,90.585 C125.600,88.589 127.218,86.970 129.214,86.970 C131.210,86.970 132.828,88.589 132.828,90.585 C132.828,90.585 132.828,119.198 132.828,119.198 C132.828,121.194 131.210,122.813 129.214,122.813 Z" id="path-7" class="cls-5" fill-rule="evenodd"/>
    <path d="M72.747,122.813 C70.751,122.813 69.132,121.194 69.132,119.198 C69.132,119.198 69.132,90.585 69.132,90.585 C69.132,88.589 70.751,86.970 72.747,86.970 C74.743,86.970 76.361,88.589 76.361,90.585 C76.361,90.585 76.361,119.198 76.361,119.198 C76.361,121.194 74.743,122.813 72.747,122.813 Z" id="path-8" class="cls-5" fill-rule="evenodd"/>
    <path d="M31.588,94.529 C31.588,101.579 25.874,107.293 18.823,107.293 C11.774,107.293 6.059,101.579 6.059,94.529 C6.059,87.478 11.774,81.763 18.823,81.763 C25.874,81.763 31.588,87.478 31.588,94.529 Z" id="path-9" class="cls-11" fill-rule="evenodd"/>
    <path d="M12.112,63.777 C12.112,67.119 9.402,69.829 6.059,69.829 C2.717,69.829 0.007,67.119 0.007,63.777 C0.007,60.435 2.717,57.724 6.059,57.724 C9.402,57.724 12.112,60.435 12.112,63.777 Z" id="path-10" class="cls-11" fill-rule="evenodd"/>
    <path d="M22.043,89.647 C22.043,92.337 19.863,94.516 17.174,94.516 C14.485,94.516 12.305,92.337 12.305,89.647 C12.305,86.958 14.485,84.778 17.174,84.778 C19.863,84.778 22.043,86.958 22.043,89.647 Z" id="path-11" class="cls-13" fill-rule="evenodd"/>
  </g>
</svg>
